X:1170
T:High the to they gill
A:Wyresdale, Lancashire
B:E and J Winder, 1835-41
L:1/8
M:6/8
N:Hie thee to the ghyll 
N:keysig looks like 6/4, but the barlines & beaming say 6/8
O:England
Z:Richard Robinson 
%%TUNEURL: http://www.leeds.ac.uk/music/Info/RRTuneBk/gettune/00001162.html
%%ID:00001162
K:C
(ef) |\
gdB gdB | B>AG AFD | gdB gdB | cA2 G3 ::\
(B/c/) |\
dBG ecA | dBG AFD | dBG dBG | cA2 G3 ::
